!!!!SEGMENT: pl-wnifc--6666-n--003_lewandowski-leopold-leon--mazur-wodzirej-.krn
!!!cenid: 18xx:3986
!!!COM: Lewandowski, Leopold Leon
!!!COM-rismID: pe50043087
!!!CDT: 1831-1896
!!!CNT: Polish
!!!OTL: Mazur „Wodzirej”
!!!PDT:
!!!AGN:
!!!SMS-siglum: PL-Wnifc
!!!SMS-shelfmark: 6666/n
!!!SMS-shelfwork: 003 W
!!!SMS-variant:
!!!SMS-altvar:
!!!NIFC-rismSourceID: 1001150235
!!!NIFC-rismChildID: 1001150254
!!!NIFC-islandoraID: nifc:213162
!!!URL-pdf-islandora: https://repozytorium.nifc.pl/islandora/object/nifc%3A213162/datastream/PDF/view
!!!URL-scan: https://polish.musicsources.pl/pl/lokalizacje/galeria/klocki-introligatorskie/687 @EN{Scan on Polish Music Sources Website} @PL{Skany w portalu Dziedzictwo Muzyki Polskiej w otwartym dostępie}
!!!ONB-nifc: UWAGA: skan 8
!!!AIN: 2 piano
!!!key: D
**kern	**kern	**dynam
*part2	*part1	*part1
*staff2	*staff1	*
*I"PIANO.	*I"PIANO.	*
*I'Pf	*I'Pf	*
*Ipiano	*Ipiano	*
*ICklav	*ICklav	*
*clefF4	*clefG2	*
*k[f#c#]	*k[f#c#]	*
*D:	*D:	*
*M3/8	*M3/8	*
=1	=1	=1
!	!LO:TX:a:B:t=J. W. Hrabiemu Michalowi Plater.\nWODZIREJ.\nMAZUR.	!
4DD/ 4AA 4D	16aa\LL	ff
.	16bb\JJ	.
.	8aaT\L	.
8DD/ 8AA 8D	16gg\L	.
.	16ff#\JJ	.
=2	=2	=2
8DD/L 8AA 8D	16ee\LL	.
.	16gg\JJ	.
8DD/ 8AA 8D	8ff#t\L	.
8DD/J 8AA 8D	16ee\L	.
.	16dd\JJ	.
=3	=3	=3
8DD/L 8GG 8BB 8D	16.cc#\LL	.
.	32cc#\JJk 32ee	.
8DD/ 8GG 8BB 8D	8b\L 8dd	.
8DD/J 8GG 8BB 8D	8g\J 8b	.
=4	=4	=4
4DD/ 4FF# 4AA 4C#	4f#/ 4a	.
8r	8r	.
=5	=5	=5
*^	*	*
4.AA/	8AA\L	16e/LL	p
.	.	16f#/JJ	.
.	8C#\ 8G	8eT/L	.
.	8C#\J 8G	16c#/L	.
.	.	16A/JJ	.
=6	=6	=6	=6
4.AA/	8AA\L	16d/LL	.
.	.	16A/JJ	.
.	.	8qqc#/	.
.	8D\ 8F#	8B/L	.
.	8D\J 8F#	8A/J	.
!LO:LB:g=original	!LO:LB:g=original	!LO:LB:g=original	!
=7	=7	=7	=7
4.AA/	8AA\L	16e/LL	.
.	.	16d#X/JJ	.
.	8C#\ 8G	8e/L	.
.	8C#\J 8G	8e#X/J	.
*v	*v	*	*
=8	=8	=8
8D\L	4.f#/	.
8F#\ 8A	.	.
8F#\J 8A	.	.
=9	=9	=9
4DD/ 4AA 4D	16aa\LL	ff
.	16bb\JJ	.
.	8aaT\L	.
8DD/ 8AA 8D	16gg\L	.
.	16ff#\JJ	.
=10	=10	=10
8DD/L 8AA 8D	16ee\LL	.
.	16gg\JJ	.
8DD/ 8AA 8D	8ff#t\L	.
8DD/J 8AA 8D	16ee\L	.
.	16dd\JJ	.
=11	=11	=11
8DD/L 8FF# 8AA 8D	16.dd\LL 16.ff#	.
.	32ee\JJk 32gg	.
8DD/ 8FF# 8AA 8D	8ff#\L 8aa	.
8DD/J 8FF# 8AA 8D	8dd\J	.
=12	=12	=12
8GG\L	4gg\ 4bb	.
8D\ 8G 8B	.	.
8D\J 8G 8B	8r	.
!LO:LB:g=original	!LO:LB:g=original	!
=13	=13	=13
8AA\L	16aa\LL	.
.	16bb\J	.
8G\ 8A 8c#	8aaT\J	.
8G\J 8A 8c#	16ee\LL	.
.	16gg\JJ	.
=14	=14	=14
8D\L	16ff#\LL	.
.	16aa\	.
8F#\ 8A 8d	16gg\	.
.	16ff#\	.
8F#\J 8A 8d	16ee\	.
.	16dd\JJ	.
=15	=15	=15
!	!LO:TUP:a	!
8AA\L	(24ee\LL	.
.	24ff#\	.
.	24gg\JJ)	.
8G\ 8A 8c#	8b\L	.
8G\J 8A 8c#	16cc#\L	.
.	16a\JJ	.
=16	=16	=16
8D\L 8F# 8A 8d	8dd\L	.
8D\J 8F# 8A 8d	8dd\J 8ff# 8aa 8ddd	.
8r	8r	.
=17||	=17||	=17||
*k[b-e-]	*k[b-e-]	*
*B-:	*B-:	*
4.F\ 4.A 4.e-	16.dd\LL	p
.	32dd\JJk	.
.	8cc\L	.
.	16dd\L	.
.	16ee-\JJ	.
=18	=18	=18
8BB-\L	8ff\L	.
8F\ 8B- 8d	16bb-\L	.
.	16ff\	.
8F\J 8B- 8d	16bb-\	.
.	16ff\JJ	.
!LO:LB:g=original	!LO:LB:g=original	!
=19	=19	=19
!	!LO:TUP:a	!
4.F\ 4.A 4.c	(24ee-\LL	.
.	24dd\	.
.	24ee-\JJ)	.
.	8cc\L	.
.	16dd\L	.
.	16ee-\JJ	.
=20	=20	=20
8BB-\L	8ff\L	.
8F\ 8B- 8d	16bb-\L	.
.	16ff\	.
8F\J 8B- 8d	16bb-\	.
.	16ff\JJ	.
=21	=21	=21
*^	*	*
4.E-/	8E-\L	16.gg\LL	.
.	.	32bb-\JJk	.
.	8G\ 8B-	8bb-^^\L	.
.	8G\J 8B-	8bb-^^\J	.
=22	=22	=22	=22
4.D/	8D\L	16bb-\	.
.	.	16r	.
.	8F\ 8B-	16ff\	.
.	.	16r	.
.	8F\J 8B-	16dd\	.
.	.	16r	.
=23	=23	=23	=23
!	!	!LO:TUP:a	!
4.C/	8C\L	(24cc\LL	.
.	.	24dd\	.
.	.	24ee-\JJ)	.
.	8E-\ 8F 8A	8ee-^^\L 8gg	.
.	8E-\J 8F 8A	8ee-^^\J 8gg	.
*v	*v	*	*
=24	=24	=24
8BB-\L	16dd\ 16ff	.
.	16r	.
8D\ 8F 8B-	16cc\ 16ee-	.
.	16r	.
8D\J 8F 8B-	16b-\ 16dd	.
.	16r	.
!LO:LB:g=original	!LO:LB:g=original	!
=25	=25	=25
8FF\L	16.dd\LL	.
.	32dd\JJk	.
8F\ 8A 8e-	8cc\L	.
8F\J 8A 8e-	16dd\L	.
.	16ee-\JJ	.
=26	=26	=26
8BB-\L	8ff\L	.
8F\ 8B- 8d	16bb-\L	.
.	16ff\	.
8F\J 8B- 8d	16bb-\	.
.	16ff\JJ	.
=27	=27	=27
!	!LO:TUP:a	!
8FF\L	(24ee-\LL	.
.	24dd\	.
.	24ee-\JJ)	.
8F\ 8A 8e-	8cc\L	.
8F\J 8A 8e-	16dd\L	.
.	16ee-\JJ	.
=28	=28	=28
8BB-\L	8ff\L	.
8F\ 8B- 8d	16bb-\L	.
.	16ff\	.
8F\J 8B- 8d	16bb-\	.
.	16ff\JJ	.
=29	=29	=29
*^	*	*
4.AA/	8AA\L	16.a\LL	.
.	.	32cc#X\JJk 32gg	.
.	8En\ 8G 8A	8cc#\L 8gg	.
.	8E\J 8G 8A	8cc#\J 8gg	.
*v	*v	*	*
=30	=30	=30
8AA/L 8F#X 8A	16dd\ 16ff#X	.
.	16r	.
8AA/ 8En 8G	16cc#X\ 16een	.
.	16r	.
8AA/J 8D 8F#X	16dd\	.
.	16r	.
!LO:LB:g=original	!LO:LB:g=original	!
=31	=31	=31
8AA#X/ 8C 8En 8G	8een\L	.
.	8qgg#X/	.
8r	8aa\	.
8r	8a\J	.
=32	=32	=32
.	8qgg#X/	.
4.r	8aa\L	.
.	8a\	.
.	8qgg#/	.
.	8aa\J	.
=33||	=33||	=33||
*k[f#c#]	*k[f#c#]	*
*D:	*D:	*
4DD/ 4AA 4D	16aa\LL	ff
.	16bb\JJ	.
.	8aaT\L	.
8DD/ 8AA 8D	16gg\L	.
.	16ff#\JJ	.
=34	=34	=34
8DD/L 8AA 8D	16ee\LL	.
.	16gg\JJ	.
8DD/ 8AA 8D	8ff#t\L	.
8DD/J 8AA 8D	16ee\L	.
.	16dd\JJ	.
=35	=35	=35
8DD/L 8GG 8BB 8D	16.cc#\LL	.
.	32cc#\JJk 32ee	.
8DD/ 8GG 8BB 8D	8b\L 8dd	.
8DD/J 8GG 8BB 8D	8g\J 8b	.
=36	=36	=36
4DD/ 4FF# 4AA 4C#	4f#/ 4a	.
8r	8r	.
!LO:LB:g=original	!LO:LB:g=original	!
=37	=37	=37
*^	*	*
4.AA/	8AA\L	16e/LL	p
.	.	16f#/JJ	.
.	8C#\ 8G	8eT/L	.
.	8C#\J 8G	16c#/L	.
.	.	16A/JJ	.
=38	=38	=38	=38
4.AA/	8AA\L	16d/LL	.
.	.	16A/JJ	.
.	.	(8qc#/	.
.	8D\ 8F#	8B/L)	.
.	8D\J 8F#	8A/J	.
=39	=39	=39	=39
4.AA/	8AA\L	16e/LL	.
.	.	16d#X/JJ	.
.	8C#\ 8G	8e/L	.
.	8C#\J 8G	8e#X/J	.
*v	*v	*	*
=40	=40	=40
8D\L	4.f#/	.
8F#\ 8A	.	.
8F#\J 8A	.	.
=41	=41	=41
4DD/ 4AA 4D	16aa\LL	ff
.	16bb\JJ	.
.	8aaT\L	.
8DD/ 8AA 8D	16gg\L	.
.	16ff#\JJ	.
=42	=42	=42
8DD/L 8AA 8D	16ee\LL	.
.	16gg\JJ	.
8DD/ 8AA 8D	8ff#t\L	.
8DD/J 8AA 8D	16ee\L	.
.	16dd\JJ	.
!LO:LB:g=original	!LO:LB:g=original	!
=43	=43	=43
8DD/L 8FF# 8AA 8D	16.dd\LL 16.ff#	.
.	32ee\JJk 32gg	.
8DD/ 8FF# 8AA 8D	8ff#\L 8aa	.
8DD/J 8FF# 8AA 8D	8dd\J	.
=44	=44	=44
8GG\L	4gg\ 4bb	.
8D\ 8G 8B	.	.
8D\J 8G 8B	8r	.
=45	=45	=45
8AA\L	16aa\LL	.
.	16bb\J	.
8G\ 8A 8c#	8aaT\J	.
8G\J 8A 8c#	16ee\LL	.
.	16gg\JJ	.
=46	=46	=46
8D\L	16ff#\LL	.
.	16aa\	.
8F#\ 8A 8d	16gg\	.
.	16ff#\	.
8F#\J 8A 8d	16ee\	.
.	16dd\JJ	.
=47	=47	=47
!	!LO:TUP:a	!
8AA\L	(24ee\LL	.
.	24ff#\	.
.	24gg\JJ)	.
8G\ 8A 8c#	8b\L	.
8G\J 8A 8c#	16cc#\L	.
.	16a\JJ	.
=48	=48	=48
8D\L 8F# 8A 8d	8dd\L	.
!LO:TX:a:t=Fine	!	!
8D\J 8F# 8A 8d	8dd\J 8ff# 8aa 8ddd	.
8r	8r	.
!LO:LB:g=original	!LO:LB:g=original	!
==49	==49	==49
*k[f#]	*k[f#]	*
*G:	*G:	*
!	!LO:TX:a:B:t=Trio.	!
16.D^^\LL 16.F#	16.d^^/LL 16.dd	ff
32D\JJk 32F#	32d/JJk 32dd	.
8D^^\L 8F#	8d^^/L 8dd	.
8D^^\J 8F#	8d^^/J 8dd	.
=50	=50	=50
16.D^^\LL 16.G	16.e^^/LL 16.dd	.
32D\JJk 32G	32e/JJk 32dd	.
8D^^\L 8G	8e^^/L 8dd	.
8D^^\J 8G	8e^^/J 8dd	.
=51	=51	=51
16D^^\ 16A	16d^^/ 16f# 16dd	.
16r	16r	.
16D^^\ 16B-X	16d^^/ 16g 16dd	.
16r	16r	.
16D^^\ 16Bn	16d^^/ 16g#X 16dd	.
16r	16r	.
=52	=52	=52
8D\ 8F# 8c	8d/ 8a 8dd	.
8r	8r	.
8r	8r	.
=53!|:	=53!|:	=53!|:
*^	*	*
4.D/	8D\L	16.b/LL	.
.	.	32a/JJk	.
.	8F#\ 8c	8f#/L	.
.	8F#\J 8c	8d/J	.
*v	*v	*	*
=54	=54	=54
8GG\L	16.g/LL	.
.	32a/JJk	.
8D\ 8G 8B	8b/L	.
8D\J 8G 8B	8g/J	.
!LO:LB:g=original	!LO:LB:g=original	!
=55	=55	=55
*^	*	*
4.D/	8D\L	16.b/LL	.
.	.	32a/JJk	.
.	8F#\ 8c	8f#/L	.
.	8F#\J 8c	8d/J	.
*v	*v	*	*
=56	=56	=56
8GG\L	16.g/LL	.
.	32a/JJk	.
8F#\ 8B 8d	8b/L	.
8F#\J 8B 8d	8g/J	.
=57	=57	=57
8AA\L	16.dd\LL	.
.	32cc#X\JJk	.
8F#\ 8A#X 8e	8a#X/L	.
8F#\J 8A# 8e	8f#/J	.
=58	=58	=58
8BB\L	16.b\LL	.
.	32cc#X\JJk	.
8F#\ 8B 8d	8dd\L	.
8F#\J 8B 8d	8b\J	.
=59	=59	=59
8AA\L	16.ff#\LL	.
.	32ee\JJk	.
8G\ 8A 8c#X	8cc#X\L	.
8G\J 8A 8c#	8a\J	.
=60	=60	=60
8D\L	4dd\	.
8F#\ 8A 8d	.	.
!	!LO:TUP:a	!
8F#\J 8A 8d	(24dd\LL	.
.	24ee\	.
.	24ff#\JJ)	.
=61	=61	=61
8GG\L	16.gg^^\LL	.
.	32gg\JJk	.
8G\ 8B 8d	8ff#\L	.
8G\J 8B 8d	8ffn\J	.
!LO:LB:g=original	!LO:LB:g=original	!
=62	=62	=62
.	(8qff#X/	.
8C\L	16.ee\LL)	.
.	32dd#X\JJk	.
8E\ 8G 8c	8ee\L	.
8E\J 8G 8c	8ccn\J	.
=63	=63	=63
8EE\L	16b\LL	.
.	16ee\JJ	.
8E\ 8G#X 8B	8dd#X\L	.
8E\J 8G# 8B	8ddn\J	.
=64	=64	=64
.	(8qdd/	.
8AA\L	16.cc\LL)	.
.	32b\JJk	.
8E\ 8A 8c	8a/L	.
8E\J 8A 8c	16b/L	.
.	16cc/JJ	.
=65	=65	=65
8D\L	16.dd\LL	.
.	32dd\JJk	.
8A\ 8c	8ee\L	.
8A\J 8c	8ff#\J	.
=66	=66	=66
8G\L	16gg\LL	.
.	16b\	.
8B\ 8d	16a#X\	.
.	16b\	.
.	(8qdd/	.
8E\J 8G#X 8d	16cc\)	.
.	16b\JJ	.
=67	=67	=67
!	!LO:TUP:b	!
8AA\L	(24b/LL	.
.	24a/	.
.	24b/JJ)	.
8E\ 8A 8c	8cc\L	.
8D\J 8A 8c	16ee\L	.
.	16f#\JJ	.
=68	=68	=68
!LO:TX:b:i:t=D.C.Mazur.	!	!
8G\L 8B	8g\L	.
8GG\J 8G	8g\J 8b 8dd 8gg	.
8r	8r	.
=:|!	=:|!	=:|!
*-	*-	*-
!!!system-decoration: [(s1,s2)]
!!!ENC: Solarz Mateusz
!!!END: 2022-08-02
!!!ENC: Julita Ruszuk
!!!END: 2022-09-02!!!YEC: Copyright 2022 Narodowy Instytut Fryderyka Chopina (https://polishscores.org)
!!!YEM: License CC-BY-4.0 (https://creativecommons.org/licenses/by/4.0)
